outline/svg/border_top.svg

<svg xmlns="http://www.w3.org/2000/svg" width="24" height="24"><path fill="none" d="M0 0h24v24H0V0z"/><g fill="currentColor"><path d="M7 21h2v-2H7v2zm0-8h2v-2H7v2zm4 0h2v-2h-2v2zm0 8h2v-2h-2v2zm-8-4h2v-2H3v2zm0 4h2v-2H3v2zm0-8h2v-2H3v2zm0-4h2V7H3v2zm8 8h2v-2h-2v2zm8-8h2V7h-2v2zm0 4h2v-2h-2v2zM3 3v2h18V3H3zm16 14h2v-2h-2v2zm-4 4h2v-2h-2v2zM11 9h2V7h-2v2zm8 12h2v-2h-2v2zm-4-8h2v-2h-2v2z"/></g></svg>

<?xml version="1.0" encoding="utf-8"?>
<!-- Generator: Adobe Illustrator 19.1.0, SVG Export Plug-In . SVG Version: 6.00 Build 0)  -->
<svg version="1.1" xmlns="http://www.w3.org/2000/svg" xmlns:xlink="http://www.w3.org/1999/xlink" x="0px" y="0px" width="24px"
	 height="24px" viewBox="0 0 24 24" enable-background="new 0 0 24 24" xml:space="preserve">
<g id="Bounding_Boxes">
	<g id="ui_x5F_spec_x5F_header_copy_3">
	</g>
	<path fill="none" d="M0,0h24v24H0V0z"/>
</g>
<g id="Outline" fill="currentColor">
	<g id="ui_x5F_spec_x5F_header">
	</g>
	<path d="M7,21h2v-2H7V21z M7,13h2v-2H7V13z M11,13h2v-2h-2V13z M11,21h2v-2h-2V21z M3,17h2v-2H3V17z M3,21h2v-2H3V21z M3,13h2v-2H3
		V13z M3,9h2V7H3V9z M11,17h2v-2h-2V17z M19,9h2V7h-2V9z M19,13h2v-2h-2V13z M3,3v2h18V3H3z M19,17h2v-2h-2V17z M15,21h2v-2h-2V21z
		 M11,9h2V7h-2V9z M19,21h2v-2h-2V21z M15,13h2v-2h-2V13z"/>
</g>
</svg>
